X: 30973
T: Oyster Wife's Rant, The
R: reel
M: 4/4
K: Edorian
B^ABc d/e/d cB|ADAF ADAd|B^ABc d2 cB|ADAF E2 eA|
B2 Bc d2 cB|AD F/E/D ADFd|B^ABc de/d/ cB|AFdF E2||
BEB^A BEEF|ADAF ADDd|B^AB=A BEED|ADAF E2 ed|
B2 B^A BE E2|ADDF ADFd|B3 c deBd|AdFd E2||

